!!!COM: Bach, Johann Sebastian
!!!OPR: Joh. Seb. Bachs vierstimmige Choralges‰nge
!!!XEN: Four-part Chorales
!!!OTL: 156. Seelenbr‰utigam, Jesu, Gottes Lamm
!!!SCT: BWV 409
!!!SCA: Thematisch-systematisches Verzeichnis der musikalischen Werke Johann Sebastian Bach: Bach-Werke-Verzeichnis (Schmieder)
!!!YOR: Bach Gesellschaft Edition xxxix
!!!ENC: Steven Rasmussen
!!!CDT: 1685/3//-1750/7/28/
!!!OCY: Deutschland
!!!YEC: Copyright (c) 1994, 2000 Center for Computer Assisted Research in the Humanities
!!!YEM: Rights to all derivative editions reserved
!!!YEN: United States of America
**kern	**silbe	**kern	**silbe	**kern	**silbe	**kern	**silbe
*I:[SOPRANO]	*I:[SOPRANO]	*I:[ALTO]	*I:[ALTO]	*I:[TENORE]	*I:[TENORE]	*I:[BASSO]	*I:[BASSO]
*clefG2	*	*clefG2	*	*clefGv2	*	*clefF4	*
*k[f#c#g#]	*	*k[f#c#g#]	*	*k[f#c#g#]	*	*k[f#c#g#]	*
*A:	*	*A:	*	*A:	*	*A:	*
*M4/4	*	*M4/4	*	*M4/4	*	*M4/4	*
=1-	=1-	=1-	=1-	=1-	=1-	=1-	=1-
4a	See-	4e	.	4c#	.	8AAL	.
.	.	.	.	.	.	8BBJ	.
4a	-len-	4e	.	4c#	.	8C#L	.
.	.	.	.	.	.	8DJ	.
4g#	-br√§u-	4e	.	4B	.	4E	.
4a	-ti-	8eL	.	4c#	.	4AA	.
.	.	8f#J	.	.	.	.	.
=2	=2	=2	=2	=2	=2	=2	=2
2b;	-gam,	2g#;	.	2e;	.	2E;	.
4a	Je-	4f#	.	8c#L	Je-	4F#	.
.	.	.	.	8dJ	.	.	.
4b	-su,	4e	.	8c#L	-su,	4G#	.
.	.	.	.	[8BJ	.	.	.
=3	=3	=3	=3	=3	=3	=3	=3
4cc#	Got-	4e	.	8B]	.	4A	Got-
.	.	.	.	4A	Got-	.	.
4b	-tes	4e	.	.	.	4E	-tes
.	.	.	.	8G#	-tes	.	.
2a;	Lamm,	2e;	.	2c#;	.	2AA;	.
=4	=4	=4	=4	=4	=4	=4	=4
4cc#	ha-	4a	.	4e	.	8AL	.
.	.	.	.	.	.	8G#J	.
4dd	-be	4a	.	4f#	.	4F#	.
4ee	Dank	4a	.	4e	.	4C#	.
4dd	f√ºr	8aL	.	8f#L	.	8F#L	.
.	.	8bJ	.	8eJ	.	8G#J	.
=5	=5	=5	=5	=5	=5	=5	=5
4cc#	dei-	8bL	.	4e	.	4A	.
.	.	8aJ	.	.	.	.	.
4b	-ne	8g#L	.	4e	.	8EL	.
.	.	8bJ	.	.	.	8G#J	.
2cc#	Lie-	8bL	.	2e	.	4A	.
.	.	16aL	.	.	.	.	.
.	.	16g#JJ	.	.	.	.	.
.	.	4a	.	.	.	4AA	.
=6	=6	=6	=6	=6	=6	=6	=6
2b;	-be,	2g#;	.	2e;	.	2E;	.
4a	die	4.f#	.	4c#	.	4F#	.
4b	mich	.	.	4B	.	4G#	.
.	.	8e	.	.	.	.	.
=7	=7	=7	=7	=7	=7	=7	=7
4cc#	zieht	8eL	.	4.A	.	8AL	.
.	.	8aJ	.	.	.	8F#J	.
4b	aus	8f#L	.	.	.	8D#L	.
.	.	8g#J	.	8G#	.	8E#J	.
4a	rei-	(8g#	.	8c#L	.	8F#L	.
.	.	4f#)	.	16B#L	.	8D#J	.
.	.	.	.	16c#JJ	.	.	.
4g#	-nem	.	.	8d#L	.	8BB#L	.
.	.	8e#	.	8c#J	.	8C#J	.
=8	=8	=8	=8	=8	=8	=8	=8
(4.a	Trie-	8f#L	Trie-	2c#	Trie-	8FF#L	.
.	.	8e#J	.	.	.	8GG#	.
.	.	2f#	.	.	.	8AA	.
8g#)	.	.	.	.	.	8BBJ	.
2g#;	-be	.	.	2c#;	-be	2C#;	.
.	.	4e#;	-be	.	.	.	.
=9	=9	=9	=9	=9	=9	=9	=9
4a	von	4f#	.	4c#	.	4F#	.
4a	der	4e	.	4c#	.	8C#L	.
.	.	.	.	.	.	8DJ	.
4g#	S√ºn-	4e	.	4B	.	4E	.
4a	-den	4e	.	4A	.	8C#L	.
.	.	.	.	.	.	8AAJ	.
=10	=10	=10	=10	=10	=10	=10	=10
2b;	Schlamm,	2e;	.	(4A	.	2E;	.
.	.	.	.	4G#;)	.	.	.
4a	Je-	8c#L	.	8AL	.	4F#	.
.	.	8f#J	.	8dJ	.	.	.
4b	-su,	4e	.	8c#L	.	4G#	.
.	.	.	.	8BJ	.	.	.
=11	=11	=11	=11	=11	=11	=11	=11
4cc#	Got-	8eL	.	8AL	.	4A	.
.	.	8aJ	.	8eJ	.	.	.
8bL	-tes	4g#	.	8.eL	.	4E	.
8aJ	.	.	.	.	.	.	.
.	.	.	.	16dJk	.	.	.
2a;	Lamm.	2e;	.	2c#;	.	2AA;	.
==|!	==|!	==|!	==|!	==|!	==|!	==|!	==|!
*-	*-	*-	*-	*-	*-	*-	*-
!!!RWG: Key is interpreted using the Humdrum key tool.
!!!END: 1994/07/29
!!!EMD: Converted from MuseData to Humdrum Dec 19, 2000, by Andreas Kornstaedt using muse2kern.
!!!EED: Craig Stuart Sapp
!!!EEV: 2024/03/31
!!!ONB: Some non-unicode characters
